X: 12577
T: Farewell To Stoke Newington
R: jig
M: 6/8
K: Cdorian
AFF FEF|AFB FcF|dcB cBA|B3 dcB|
AFF FDE|AEB EcE|dcB cBA|B3 dcB|
AFF FEF|AFB FcF|dcB cBA|B3 dcB|
AFF FED|EGB edc|dcB Ac(f|f3) dcB:|
|:Acf dcB|AFF FED|EGB edc|d3 dcB|
Acf dcB|AFF FED|EGB e2 (d|d)cB c2 B|
Acf dcB|AFF FED|EGB edc|dcB cBA|
Fcc fcc|ecc fcc|DFA cBA|1 B2 G2 FG:|2 B2 G2 FE||

